logos/headlessui.svg

<?xml version="1.0" encoding="UTF-8"?>
<svg width="512px" height="90px" viewBox="0 0 512 90" version="1.1" xmlns="http://www.w3.org/2000/svg" xmlns:xlink="http://www.w3.org/1999/xlink" preserveAspectRatio="xMidYMid">
    <title>Headless UI</title>
    <defs>
        <linearGradient x1="35.8706002%" y1="7.20195717%" x2="60.3143692%" y2="116.021852%" id="linearGradient-1">
            <stop stop-color="#66E3FF" offset="0%"></stop>
            <stop stop-color="#7064F9" offset="100%"></stop>
        </linearGradient>
        <linearGradient x1="39.1771746%" y1="-0.000258114803%" x2="55.0475018%" y2="99.1811839%" id="linearGradient-2">
            <stop stop-color="#66E3FF" offset="0%"></stop>
            <stop stop-color="#7064F9" offset="100%"></stop>
        </linearGradient>
    </defs>
    <g>
        <path d="M138.844607,29.129361 C133.290117,29.129361 128.880104,31.1720702 126.185407,35.4197859 L126.185407,13.8510159 L117.365381,13.8510159 L117.365381,71.0384773 L126.185407,71.0384773 L126.185407,49.1451124 C126.185407,40.8119784 130.757718,37.3813463 136.555654,37.3813463 C142.110144,37.3813463 145.705872,40.6468827 145.705872,46.8561589 L145.705872,71.0384773 L154.5231,71.0384773 L154.5231,45.9579265 C154.5231,35.3386372 147.992027,29.129361 138.844607,29.129361 Z M181.254607,29.129361 C193.424117,29.129361 201.754453,38.9315667 201.754453,50.6953328 C201.754453,51.6145519 201.661586,52.5794172 201.546684,53.4872248 L201.42706,54.3722093 L168.9228,54.3722093 C170.310723,60.7437829 175.456671,64.0121175 181.990542,64.0121175 C186.645261,64.0121175 190.196378,62.0220991 192.219246,59.3711824 L192.525884,58.9473181 L199.792892,63.1950339 C196.037665,68.7495238 189.909538,72.0990072 181.906595,72.0990072 C168.433109,72.0990072 159.694232,62.870439 159.694232,50.6141841 C159.694232,38.5230249 168.433109,29.129361 181.254607,29.129361 Z M181.173458,37.1351019 C174.778939,37.1351019 170.366433,40.7984256 168.972268,46.5756344 L168.838853,47.1807538 L192.850479,47.1807538 C191.624854,40.1571922 186.481704,37.1351019 181.173458,37.1351019 Z M225.281985,29.129361 C231.376534,29.129361 236.047613,31.5205849 239.160534,35.4459233 L239.575352,35.9906252 L239.575352,30.1898908 L248.395379,30.1898908 L248.395379,71.0384773 L239.575352,71.0384773 L239.575352,65.1565943 C236.472113,69.4854587 231.653558,72.0990072 225.281985,72.0990072 C214.175803,72.0990072 204.947235,62.7025451 204.947235,50.6141841 C204.947235,38.4418761 214.173005,29.129361 225.281985,29.129361 Z M226.669908,37.5436438 C219.321751,37.5436438 213.767261,43.016985 213.767261,50.6141841 C213.767261,58.0003499 219.017454,63.381656 226.061794,63.6749183 L226.669908,63.6875226 C234.020863,63.6847244 239.575352,58.2113832 239.575352,50.6141841 C239.575352,43.016985 234.020863,37.5436438 226.669908,37.5436438 Z M297.795361,13.8510159 L297.795361,71.0384773 L288.975335,71.0384773 L288.975335,65.1565943 C285.872096,69.4854587 281.053541,72.0990072 274.681968,72.0990072 C263.575786,72.0990072 254.347218,62.7025451 254.347218,50.6141841 C254.347218,38.4418761 263.575786,29.129361 274.681968,29.129361 C280.776516,29.129361 285.450156,31.5205849 288.56085,35.4459233 L288.975335,35.9906252 L288.975335,13.8510159 L297.795361,13.8510159 Z M276.072689,37.5436438 C268.721734,37.5436438 263.167244,43.016985 263.167244,50.6141841 C263.167244,58.0003499 268.417437,63.381656 275.464348,63.6749183 L276.072689,63.6875226 C283.420845,63.6847244 288.975335,58.2113832 288.975335,50.6141841 C288.975335,43.016985 283.420845,37.5436438 276.072689,37.5436438 Z M306.033356,71.0384773 L314.85618,71.0384773 L314.85618,11.4025631 L306.033356,11.4025631 L306.033356,71.0384773 Z M342.329219,29.129361 C354.498729,29.129361 362.829065,38.9315667 362.829065,50.6953328 C362.829065,51.6145519 362.736198,52.5794172 362.621296,53.4872248 L362.501671,54.3722093 L329.997412,54.3722093 C331.385335,60.7437829 336.531283,64.0121175 343.062356,64.0121175 C347.719733,64.0121175 351.268457,62.0220991 353.29108,59.3711824 L353.597698,58.9473181 L360.867504,63.1950339 C357.109479,68.7495238 350.98415,72.0990072 342.981207,72.0990072 C329.507721,72.0990072 320.768844,62.870439 320.768844,50.6141841 C320.768844,38.5230249 329.507721,29.129361 342.329219,29.129361 Z M342.24807,37.1351019 C335.853551,37.1351019 331.441045,40.7984256 330.04688,46.5756344 L329.913465,47.1807538 L353.925091,47.1807538 C352.699466,40.1571922 347.556316,37.1351019 342.24807,37.1351019 Z M374.872654,41.4639664 C374.872654,38.5258231 377.651298,37.1351019 380.835686,37.1351019 C384.185169,37.1351019 387.042164,38.6041736 388.514033,41.7913595 L395.946137,37.6247925 C393.086344,32.2326 387.531854,29.129361 380.835686,29.129361 C372.50535,29.129361 365.89033,33.947916 365.89033,41.6290621 C365.89033,49.0723584 371.584092,51.6682331 377.174332,53.3823365 L378.960499,53.9078087 L378.960499,53.9078087 L381.257018,54.5645451 L381.257018,54.5645451 L382.340312,54.8936123 C385.506213,55.8945195 387.859247,57.0577994 387.859247,59.4370087 C387.859247,62.7053433 384.837157,64.0121175 380.916834,64.0121175 C376.425672,64.0121175 373.160136,61.8071109 371.853362,58.1302345 L364.256163,62.5402476 C366.869711,68.4221307 372.751594,72.0990072 380.916834,72.0990072 C389.736861,72.0990072 396.844369,67.688994 396.844369,59.5181574 C396.844369,52.2327613 391.736786,49.5039901 386.446789,47.7982294 L385.270234,47.4345749 L385.270234,47.4345749 L381.278402,46.3025975 L381.278402,46.3025975 L380.223455,45.9838615 C377.313844,45.0654152 375.127382,43.9818106 374.893423,41.8510354 L374.872654,41.4639664 Z M408.003717,41.4639664 C408.003717,38.5258231 410.782361,37.1351019 413.966749,37.1351019 C417.313434,37.1351019 420.173227,38.6041736 421.642299,41.7913595 L429.074402,37.6247925 C426.217408,32.2326 420.662918,29.129361 413.966749,29.129361 C405.636413,29.129361 399.021394,33.947916 399.021394,41.6290621 C399.021394,49.0723584 404.715156,51.6682331 410.305395,53.3823365 L412.091562,53.9078087 L412.091562,53.9078087 L414.388082,54.5645451 L414.388082,54.5645451 L415.471375,54.8936123 C418.637276,55.8945195 420.990311,57.0577994 420.990311,59.4370087 C420.990311,62.7053433 417.96822,64.0121175 414.047898,64.0121175 C409.556736,64.0121175 406.288401,61.8071109 404.981627,58.1302345 L397.387226,62.5402476 C400.000775,68.4221307 405.879859,72.0990072 414.047898,72.0990072 C422.867924,72.0990072 429.972634,67.688994 429.972634,59.5181574 C429.972634,52.2327613 424.865702,49.5039901 419.576379,47.7982294 L418.399973,47.4345749 L418.399973,47.4345749 L414.408649,46.3025975 L414.408649,46.3025975 L413.353837,45.9838615 L413.353837,45.9838615 L412.359071,45.65141 C409.957222,44.7959557 408.230892,43.7311312 408.024483,41.8510354 L408.003717,41.4639664 Z" fill="#111827" fill-rule="nonzero"></path>
        <path d="M494.967162,14.2063913 C499.485521,14.2063913 503.818738,16.0016851 507.013176,19.1971721 C510.019705,22.2046892 511.785594,26.2205448 511.981705,30.4495767 L512,31.2448242 L512,59.6384814 C512.000741,64.1563552 510.206543,68.4894427 507.012186,71.6843244 C504.005732,74.6912719 499.990837,76.4581059 495.762319,76.6555641 L494.967162,76.674116 L466.5819,76.674116 C462.064511,76.6733739 457.732437,74.8781364 454.538685,71.6833351 C451.532801,68.6764634 449.767001,64.6616583 449.570279,60.4335561 L449.551861,59.6384814 L449.551861,31.242026 C449.55112,26.7246369 451.344934,22.3919734 454.538685,19.1971722 C457.544569,16.1903004 461.558794,14.4231806 465.786831,14.2250699 L466.5819,14.2063913 L494.967162,14.2063913 Z M494.967162,19.8840034 L466.5819,19.8868017 C460.311223,19.8883464 455.22822,24.9713487 455.226676,31.242026 L455.226676,59.6384814 C455.22822,65.9091586 460.311223,70.9921609 466.5819,70.9937056 L494.967162,70.9937056 C501.23784,70.9921609 506.320842,65.9091586 506.322387,59.6384814 L506.322387,31.2448242 C506.323129,28.2324893 505.127195,25.343237 502.997678,23.2126698 C500.86816,21.0821026 497.979497,19.8847455 494.967162,19.8840034 Z M470.11047,33.2315687 L470.11047,51.5180129 C470.11047,54.2211048 471.543165,56.2470245 475.278804,56.2470245 C478.836556,56.2470245 480.302931,54.4094556 480.434518,51.8994167 L480.44434,51.5180129 L480.44434,33.2343669 L485.928874,33.2343669 L485.928874,51.9545371 C485.928874,57.7631245 481.686102,61.3782594 475.865976,61.6054495 L475.278804,61.6168312 C469.394394,61.6141232 464.961802,58.1888954 464.681952,52.5280316 L464.667909,51.9545371 L464.667909,33.2315687 L470.11047,33.2315687 Z M497.146985,33.2315687 L497.146985,61.0571848 L491.662451,61.0571848 L491.662451,33.2315687 L497.146985,33.2315687 Z" fill="#111827" fill-rule="nonzero"></path>
        <g transform="translate(-0.000000, 0.000000)">
            <path d="M17.725946,55.63701 L72.347429,37.3981357 C71.2561186,30.5704503 70.4782102,26.0093327 69.5771796,22.5283324 C68.6061932,18.7842984 67.8366795,17.7825314 67.5344705,17.4355507 C66.4813095,16.2301097 65.1700359,15.2774996 63.6980948,14.6485119 C63.2727636,14.4666269 62.0807169,14.0440939 58.2247536,14.2763471 C54.1449317,14.5225915 48.7891162,15.3564645 40.3076759,16.6996158 C31.8290338,18.042767 26.4760166,18.9074206 22.5221152,19.9315734 C18.7808794,20.9025598 17.7763142,21.6748717 17.4293335,21.9770808 C16.2260938,23.0320141 15.274695,24.3415866 14.6450929,25.8134564 C14.4632078,26.2387877 14.0406749,27.4308344 14.2729281,31.2895959 C14.5191725,35.3694177 15.3530455,40.7280315 16.6961967,49.2094718 C17.0711598,51.5879687 17.4097458,53.7146248 17.725946,55.63701 L17.725946,55.63701 Z" fill="url(#linearGradient-1)" fill-rule="nonzero"></path>
            <path d="M2.66586295,51.4312677 C0.0691039211,35.022437 -1.23207382,26.8180216 1.58294728,20.2309842 C3.05039026,16.7955427 5.27314489,13.7349512 8.08603777,11.2766427 C13.4782303,6.56721874 21.6798474,5.26883922 38.0830817,2.66928196 C54.4919125,0.0669264731 62.6935296,-1.23145304 69.2833653,1.58356806 C72.7169346,3.05148485 75.7756022,5.2742314 78.2321103,8.08665855 C82.9443325,13.4816493 84.242712,21.6860647 86.839471,38.0976936 C89.4390283,54.5065244 90.7374078,62.713738 87.9223867,69.2979772 C86.4559218,72.7332408 84.2341149,75.7938443 81.4220944,78.2523187 C76.0299019,82.9645409 67.8254866,84.2629204 51.419454,86.8624777 C35.0162198,89.4620349 26.8118044,90.7604144 20.2275652,87.9453933 C16.7940435,86.4773926 13.7353934,84.2546587 11.2788202,81.4423028 C6.56659795,76.0473121 5.26821844,67.8428967 2.66866118,51.4312677 L2.66586295,51.4312677 Z M31.6023771,80.5720528 C35.9956008,80.3062208 41.6536254,79.4191813 50.0287329,78.0928195 C58.4066386,76.7664577 64.0562684,75.8598306 68.3207736,74.7545291 C72.4481653,73.6828063 74.3509629,72.6390659 75.5793866,71.5645449 C77.3866674,69.9840734 78.8146145,68.0167008 79.7571466,65.8085823 C80.4007399,64.3087301 80.8064835,62.1764775 80.5490461,57.9175689 C80.2832141,53.5243451 79.3961747,47.8635223 78.0698128,39.4856166 C76.743451,31.1077108 75.8396222,25.4524845 74.7343206,21.1907777 C73.6625979,17.0605876 72.6160592,15.1577901 71.5443365,13.9293664 C69.9650288,12.1213391 67.9986038,10.6924291 65.7911721,9.74880819 C64.2913199,9.1052149 62.1590673,8.6994713 57.9001587,8.95690862 C53.5069349,9.22274063 47.8517086,10.1097801 39.4738029,11.4361419 C31.0986954,12.765302 25.4462673,13.6691308 21.1845604,14.7744323 C17.0543704,15.8461551 15.1543711,16.8926937 13.9259474,17.9644165 C12.1177229,19.544657 10.6888152,21.5120352 9.74538918,23.7203791 C9.10459411,25.2202313 8.69885052,27.3524839 8.95628783,31.6113925 C9.22211985,36.0074146 10.1063611,41.6654391 11.4355211,50.0433448 C12.761883,58.4212506 13.6657118,64.0764768 14.7710133,68.3381837 C15.8427361,72.4683737 16.8864765,74.3711713 17.9609975,75.599595 C19.5403703,77.407551 21.5067778,78.8364483 23.7141619,79.7801532 C25.2140141,80.4237465 27.3434684,80.8294901 31.6051753,80.5720528 L31.6023771,80.5720528 Z" fill="url(#linearGradient-2)"></path>
        </g>
    </g>
</svg>

<svg preserveAspectRatio="xMidYMid" viewBox="0 0 512 90" xmlns="http://www.w3.org/2000/svg">
  <defs>
    <linearGradient id="headlessui_svg__a" x1="35.871%" x2="60.314%" y1="7.202%" y2="116.022%">
      <stop offset="0%" stop-color="#66E3FF"/>
      <stop offset="100%" stop-color="#7064F9"/>
    </linearGradient>
    <linearGradient id="headlessui_svg__b" x1="39.177%" x2="55.048%" y1="0%" y2="99.181%">
      <stop offset="0%" stop-color="#66E3FF"/>
      <stop offset="100%" stop-color="#7064F9"/>
    </linearGradient>
  </defs>
  <path fill="#111827" d="M138.845 29.13c-5.555 0-9.965 2.042-12.66 6.29V13.85h-8.82v57.187h8.82V49.145c0-8.333 4.573-11.764 10.37-11.764 5.555 0 9.15 3.266 9.15 9.475v24.182h8.818v-25.08c0-10.62-6.531-16.829-15.678-16.829Zm42.41 0c12.17 0 20.5 9.802 20.5 21.565 0 .92-.093 1.884-.208 2.792l-.12.885h-32.504c1.388 6.372 6.534 9.64 13.068 9.64 4.654 0 8.205-1.99 10.228-4.64l.307-.425 7.267 4.248c-3.755 5.555-9.883 8.904-17.886 8.904-13.474 0-22.213-9.229-22.213-21.485 0-12.091 8.74-21.485 21.56-21.485Zm-.082 8.005c-6.394 0-10.807 3.663-12.2 9.44l-.134.606h24.011c-1.225-7.024-6.368-10.046-11.677-10.046Zm44.109-8.006c6.095 0 10.766 2.392 13.879 6.317l.414.545V30.19h8.82v40.848h-8.82v-5.881c-3.103 4.328-7.921 6.942-14.293 6.942-11.106 0-20.335-9.396-20.335-21.485 0-12.172 9.226-21.485 20.335-21.485Zm1.388 8.415c-7.348 0-12.903 5.473-12.903 13.07 0 7.386 5.25 12.768 12.295 13.06l.608.014c7.35-.003 12.905-5.477 12.905-13.074 0-7.597-5.554-13.07-12.905-13.07Zm71.125-23.693v57.187h-8.82v-5.881c-3.103 4.328-7.921 6.942-14.293 6.942-11.106 0-20.335-9.396-20.335-21.485 0-12.172 9.229-21.485 20.335-21.485 6.095 0 10.768 2.392 13.879 6.317l.414.545V13.85h8.82Zm-21.722 23.693c-7.351 0-12.906 5.473-12.906 13.07 0 7.386 5.25 12.768 12.297 13.06l.609.014c7.348-.003 12.902-5.477 12.902-13.074 0-7.597-5.554-13.07-12.902-13.07Zm29.96 33.494h8.823V11.403h-8.823v59.635ZM342.33 29.13c12.17 0 20.5 9.803 20.5 21.566 0 .92-.093 1.884-.208 2.792l-.12.885h-32.504c1.388 6.372 6.534 9.64 13.065 9.64 4.658 0 8.206-1.99 10.23-4.64l.306-.425 7.27 4.248c-3.759 5.555-9.884 8.904-17.887 8.904-13.473 0-22.212-9.229-22.212-21.485 0-12.091 8.739-21.485 21.56-21.485Zm-.08 8.006c-6.395 0-10.808 3.663-12.202 9.44l-.134.606h24.012c-1.226-7.024-6.369-10.046-11.677-10.046Zm32.624 4.329c0-2.938 2.778-4.329 5.963-4.329 3.35 0 6.206 1.47 7.678 4.656l7.432-4.166c-2.86-5.392-8.414-8.496-15.11-8.496-8.33 0-14.946 4.819-14.946 12.5 0 7.443 5.694 10.04 11.284 11.753l1.786.526 2.297.657 1.083.329c3.166 1 5.52 2.164 5.52 4.543 0 3.268-3.023 4.575-6.943 4.575-4.491 0-7.757-2.205-9.064-5.882l-7.597 4.41c2.614 5.882 8.496 9.559 16.66 9.559 8.82 0 15.928-4.41 15.928-12.58 0-7.286-5.107-10.015-10.397-11.72l-1.177-.364-3.992-1.132-1.055-.32c-2.91-.918-5.096-2.001-5.33-4.132l-.02-.387Zm33.13 0c0-2.938 2.78-4.329 5.964-4.329 3.346 0 6.206 1.47 7.675 4.656l7.432-4.166c-2.857-5.392-8.411-8.496-15.107-8.496-8.33 0-14.946 4.819-14.946 12.5 0 7.443 5.694 10.04 11.284 11.753l1.787.526 2.296.657 1.083.329c3.166 1 5.52 2.164 5.52 4.543 0 3.268-3.023 4.575-6.943 4.575-4.491 0-7.76-2.205-9.066-5.882l-7.595 4.41c2.614 5.882 8.493 9.559 16.66 9.559 8.82 0 15.926-4.41 15.926-12.58 0-7.286-5.107-10.015-10.397-11.72l-1.176-.364-3.991-1.132-1.055-.32-.995-.332c-2.402-.855-4.128-1.92-4.335-3.8l-.02-.387Z"/>
  <path fill="#111827" d="M494.967 14.206a17.033 17.033 0 0 1 17.015 16.244l.018.795v28.393a17.033 17.033 0 0 1-16.238 17.018l-.795.018h-28.385a17.033 17.033 0 0 1-17.012-16.24l-.018-.796V31.242a17.033 17.033 0 0 1 16.235-17.017l.795-.019h28.385Zm0 5.678-28.385.003c-6.27.001-11.354 5.084-11.355 11.355v28.396c.001 6.271 5.084 11.354 11.355 11.356h28.385c6.27-.002 11.354-5.085 11.355-11.356V31.245a11.358 11.358 0 0 0-11.355-11.361ZM470.11 33.232v18.286c0 2.703 1.433 4.729 5.169 4.729 3.558 0 5.024-1.838 5.156-4.348l.01-.381V33.234h5.484v18.72c0 5.81-4.243 9.424-10.063 9.651l-.587.012c-5.885-.003-10.317-3.428-10.597-9.089l-.014-.573V33.232h5.442Zm27.037 0v27.825h-5.485V33.232h5.485Z"/>
  <path fill="url(#headlessui_svg__a)" d="m17.726 55.637 54.621-18.239c-1.09-6.828-1.869-11.389-2.77-14.87-.97-3.744-1.74-4.745-2.043-5.092a10.653 10.653 0 0 0-3.836-2.787c-.425-.182-1.617-.605-5.473-.373-4.08.247-9.436 1.08-17.917 2.424-8.479 1.343-13.832 2.207-17.786 3.232-3.741.97-4.746 1.743-5.093 2.045a10.695 10.695 0 0 0-2.784 3.836c-.182.426-.604 1.618-.372 5.477.246 4.08 1.08 9.438 2.423 17.92.375 2.378.714 4.505 1.03 6.427Z"/>
  <path fill="url(#headlessui_svg__b)" d="M2.666 51.431c-2.597-16.409-3.898-24.613-1.083-31.2a24.862 24.862 0 0 1 6.503-8.954c5.392-4.71 13.594-6.008 29.997-8.608 16.409-2.602 24.61-3.9 31.2-1.085a24.854 24.854 0 0 1 8.95 6.503c4.711 5.395 6.01 13.6 8.606 30.01 2.6 16.41 3.898 24.617 1.083 31.201a24.857 24.857 0 0 1-6.5 8.954c-5.392 4.713-13.597 6.01-30.003 8.61-16.403 2.6-24.607 3.898-31.191 1.083a24.857 24.857 0 0 1-8.95-6.503c-4.711-5.395-6.01-13.6-8.61-30.01h-.002Zm28.936 29.141c4.394-.266 10.052-1.153 18.427-2.48 8.378-1.326 14.027-2.232 18.292-3.337 4.127-1.072 6.03-2.116 7.258-3.19a15.98 15.98 0 0 0 4.178-5.756c.644-1.5 1.05-3.633.792-7.891-.266-4.394-1.153-10.054-2.48-18.432-1.326-8.378-2.23-14.034-3.335-18.295-1.071-4.13-2.118-6.033-3.19-7.262a15.978 15.978 0 0 0-5.753-4.18c-1.5-.644-3.632-1.05-7.89-.792-4.394.266-10.05 1.153-18.427 2.48-8.375 1.328-14.028 2.232-18.29 3.337-4.13 1.072-6.03 2.119-7.258 3.19a15.983 15.983 0 0 0-4.18 5.756c-.641 1.5-1.047 3.632-.79 7.891.266 4.396 1.15 10.054 2.48 18.432 1.326 8.378 2.23 14.033 3.335 18.295 1.072 4.13 2.115 6.033 3.19 7.262a15.98 15.98 0 0 0 5.753 4.18c1.5.644 3.63 1.05 7.891.792h-.003Z"/>
</svg>
